X:562
T:Music for a Found Harmonium
R:reel
C:Simon Jeffes
D:Patrick Street: Irish Times
D:Sharon Shannon
Z:id:hn-reel-562
M:C|
L:1/8
K:D
"D"FDGD FD~D2 | FDGD FD~D2 | FDGD FD~D2 | "A"EDCD "D"FD~D2 :|
|: "A"EDCD EDCD | "D"FD=CD FD=CD | "G"GDED B,DGD | "D"FDDC D4 :|
|: "D"fdgd fd~d2 | fdgd fd~d2 | fdgd fd~d2 | "A"edcd "D"fd~d2 :|
|: "A"edcd edcd | "D"fd=cd fd=cd | "G"gded Bdgd | "D"fddc d4 :|
K:F
|: "F"cFEF GFEF | cFEF "C"~E3F | "F"cFEF GFEF | cFEF "C"~E3F :|
"Bb"BFDF GFDF | BFDF GFDF | "C#dim"BFEF GE2F | BFEF GE2F ||
K:D
|: "A7"cGEG CG~G2 | cGEG CG~G2 :|
|: "D"FDGD FD~D2 | FDGD ADGD | FDGD FD~D2 | "A"EDCD "D"FD~D2 :|
|: "A"EDCD EDCD | "D"FD=CD FD=CD | "G"GDED B,DGD | "D"FDDC D4 :|

